build/assets/img/svg/icon-box-active.svg

<svg width="26" height="26" viewBox="0 0 26 26" fill="none" xmlns="http://www.w3.org/2000/svg">
<path d="M13.5 4L16 1.5L24 6L21.5 8.5L13.5 4Z" fill="#C43B55"/>
<path d="M4.5 8.5L12.5 4.5L10 1.5L2 6L4.5 8.5Z" fill="#C43B55"/>
<path d="M13 13.5L4.5 9L1.5 12L10 16.5L13 13.5Z" fill="#C43B55"/>
<path d="M16 16L13.5 13.5L22 9L24.5 11.5L16 16Z" fill="#C43B55"/>
<path d="M22.167 8.94245L24.801 6.28703C24.879 6.20837 24.9154 6.09766 24.8993 5.98816C24.8831 5.87861 24.8163 5.78308 24.719 5.73034L16.0707 1.04294C15.9339 0.968828 15.7646 0.993344 15.6546 1.10341L12.9997 3.75836L10.3449 1.10359C10.2788 1.03703 10.1902 1 10.0969 1C10.0383 1 9.98067 1.01495 9.92911 1.04312L7.15134 2.54819C7.06884 2.59319 7.00884 2.66725 6.98212 2.75725C6.9554 2.84725 6.96525 2.94241 7.00978 3.02491C7.07165 3.13834 7.19025 3.20917 7.31915 3.20917C7.37728 3.20917 7.4354 3.19417 7.4865 3.16652L10.0332 1.78609L12.4177 4.17058L4.39237 8.5083L2.02804 6.1247L6.24998 3.83636C6.33295 3.79183 6.39295 3.71777 6.41967 3.62777C6.44639 3.53777 6.43654 3.44261 6.39154 3.36011C6.33014 3.24667 6.21154 3.17589 6.08264 3.17589C6.02451 3.17589 5.96686 3.19084 5.91529 3.2185L1.28086 5.73053C1.18383 5.78252 1.11633 5.87913 1.10039 5.98834C1.08445 6.09705 1.12106 6.20861 1.19883 6.28694L3.83259 8.94255L1.19864 11.5979C1.12068 11.6766 1.08431 11.7873 1.10043 11.8968C1.11661 12.0063 1.1834 12.1019 1.28072 12.1546L3.97664 13.6158V19.96C3.97659 19.9722 3.9772 19.9843 3.97842 19.9962C3.97894 20.0013 3.97992 20.0063 3.98062 20.0114C3.98151 20.0175 3.98222 20.0237 3.98344 20.0297C3.98494 20.0373 3.987 20.0448 3.98897 20.0522C3.9899 20.0556 3.99061 20.0591 3.99164 20.0625C3.99394 20.0701 3.9967 20.0774 3.99947 20.0848C4.00068 20.0881 4.00172 20.0914 4.00308 20.0947C4.00579 20.1013 4.00894 20.1077 4.01203 20.114C4.01395 20.118 4.01569 20.122 4.01775 20.1259C4.02056 20.1311 4.0237 20.1362 4.0267 20.1412C4.02961 20.146 4.03237 20.1509 4.03547 20.1557C4.03804 20.1595 4.04095 20.1632 4.04372 20.167C4.0477 20.1725 4.05164 20.1781 4.05595 20.1835C4.05834 20.1864 4.06101 20.1891 4.0635 20.192C4.06847 20.1977 4.07343 20.2034 4.07878 20.2088C4.08154 20.2116 4.08459 20.2141 4.08745 20.2169C4.09279 20.2219 4.09804 20.227 4.10372 20.2316C4.1092 20.2362 4.11501 20.2403 4.12073 20.2445C4.12411 20.247 4.12725 20.2496 4.13072 20.252C4.14079 20.2588 4.15125 20.2651 4.16203 20.2709L12.8309 24.9568C12.8433 24.9637 12.8564 24.9696 12.8697 24.9749C12.8726 24.976 12.8756 24.9771 12.8785 24.9781C12.8883 24.9817 12.8982 24.9849 12.9083 24.9876C12.912 24.9886 12.9156 24.9895 12.9193 24.9904C12.9291 24.9927 12.9391 24.9945 12.9492 24.996C12.9527 24.9964 12.9561 24.9971 12.9595 24.9975C12.9727 24.999 12.9862 25 12.9998 25C13.0134 25 13.0268 24.999 13.0401 24.9975C13.0435 24.9971 13.047 24.9964 13.0504 24.996C13.0605 24.9945 13.0705 24.9927 13.0803 24.9904C13.084 24.9895 13.0876 24.9886 13.0912 24.9876C13.1014 24.9849 13.1113 24.9817 13.121 24.9781C13.124 24.9771 13.1269 24.976 13.1298 24.9749C13.1431 24.9696 13.1562 24.9637 13.1686 24.9568L21.8375 20.2709C21.8482 20.2651 21.8587 20.2588 21.8688 20.252C21.8722 20.2496 21.8754 20.2469 21.8788 20.2445C21.8845 20.2403 21.8903 20.2361 21.8958 20.2316C21.9015 20.227 21.9067 20.2219 21.912 20.2169C21.9149 20.2141 21.918 20.2116 21.9207 20.2088C21.9261 20.2034 21.931 20.1977 21.936 20.192C21.9385 20.1891 21.9412 20.1864 21.9435 20.1835C21.9479 20.1782 21.9518 20.1726 21.9558 20.167C21.9585 20.1632 21.9615 20.1595 21.964 20.1557C21.9671 20.1509 21.9699 20.1461 21.9728 20.1412C21.9758 20.1362 21.979 20.1311 21.9818 20.1259C21.9838 20.122 21.9855 20.118 21.9875 20.114C21.9906 20.1077 21.9937 20.1013 21.9964 20.0947C21.9978 20.0914 21.9988 20.0881 22 20.0848C22.0028 20.0775 22.0056 20.0701 22.0079 20.0625C22.0089 20.0591 22.0096 20.0557 22.0105 20.0522C22.0125 20.0448 22.0146 20.0373 22.0161 20.0297C22.0173 20.0237 22.018 20.0175 22.0189 20.0114C22.0196 20.0063 22.0206 20.0013 22.0211 19.9962C22.0223 19.9842 22.0229 19.9721 22.0229 19.96V13.6158L24.7186 12.1547C24.8157 12.1022 24.8832 12.0056 24.8991 11.8968C24.915 11.7876 24.8785 11.6761 24.8011 11.5978L22.167 8.94245ZM15.9663 1.78614L23.9715 6.12494L21.6072 8.50844L13.582 4.17044L15.9663 1.78614ZM4.49418 13.0966L2.02818 11.76L4.39247 9.37652L12.4177 13.7145L10.0334 16.0988L4.49718 13.0982C4.4962 13.0976 4.49522 13.0971 4.49418 13.0966ZM12.6483 24.0588L4.67972 19.7514V13.9969L9.92897 16.842C9.9817 16.8706 10.0393 16.8845 10.0964 16.8845C10.1874 16.8845 10.2774 16.8491 10.3451 16.7815L12.6483 14.4783V24.0588ZM12.9998 13.2299L5.06826 8.94255L13 4.65512L20.9316 8.9425L12.9998 13.2299ZM21.5069 13.0959C21.5049 13.0969 21.5031 13.0979 21.5012 13.099L19.7497 14.0483C19.6667 14.0928 19.6067 14.1674 19.58 14.2574C19.5533 14.3474 19.5631 14.4425 19.6077 14.5251C19.6695 14.6385 19.7881 14.7088 19.917 14.7088C19.9752 14.7088 20.0333 14.6943 20.0844 14.6666L21.3199 13.9969V19.7515L13.3514 24.0588V14.4782L15.6548 16.7815C15.7214 16.8481 15.8095 16.8847 15.9032 16.8847C15.9614 16.8847 16.019 16.8697 16.0706 16.842L18.8483 15.3364C18.9308 15.2919 18.9908 15.2174 19.0176 15.1274C19.0443 15.0374 19.0344 14.9427 18.9899 14.8602C18.928 14.7463 18.8094 14.676 18.6801 14.676C18.6224 14.676 18.5643 14.6905 18.5132 14.7186L15.9665 16.0985L13.582 13.7146L21.6074 9.37633L23.9717 11.7599L21.5069 13.0959Z" fill="black" stroke="black" stroke-width="0.6"/>
</svg>

<svg width="26" height="26" fill="none" xmlns="http://www.w3.org/2000/svg"><path d="M13.5 4L16 1.5 24 6l-2.5 2.5-8-4.5zm-9 4.5l8-4-2.5-3L2 6l2.5 2.5zm8.5 5L4.5 9l-3 3 8.5 4.5 3-3zm3 2.5l-2.5-2.5L22 9l2.5 2.5L16 16z" fill="#C43B55"/><path d="M22.167 8.942l2.634-2.655a.352.352 0 00-.082-.557l-8.648-4.687a.352.352 0 00-.416.06L13 3.758l-2.655-2.654a.348.348 0 00-.416-.06L7.151 2.547a.35.35 0 00-.141.477.353.353 0 00.477.142l2.546-1.38 2.385 2.384-8.026 4.337-2.364-2.383L6.25 3.836a.348.348 0 00.142-.476.351.351 0 00-.477-.142L1.281 5.732a.351.351 0 00-.082.556l2.634 2.656-2.634 2.655a.352.352 0 00.082.557l2.696 1.46v6.345l.001.036.003.015.002.019.006.022c0 .004.002.007.003.01l.007.023.004.01.009.019.006.012.009.015.008.015.009.011.012.016.008.009.015.017.008.008.017.015.017.012.01.008.031.019 8.669 4.686a.334.334 0 00.118.039l.01.002a.357.357 0 00.081 0l.01-.002a.367.367 0 00.071-.018l.009-.003a.334.334 0 00.039-.018l8.668-4.686a.382.382 0 00.032-.019l.01-.008.017-.012.016-.015.009-.008.015-.017.008-.009.012-.016.008-.011.009-.015.009-.015.006-.012a.308.308 0 00.008-.02l.004-.01a.327.327 0 00.008-.021c0-.004.002-.007.003-.01l.005-.023.003-.019.002-.015a.364.364 0 00.002-.036v-6.344l2.696-1.461a.353.353 0 00.082-.557l-2.634-2.656zm-6.2-7.156l8.004 4.339-2.364 2.383-8.025-4.338 2.384-2.384zM4.493 13.096L2.028 11.76l2.364-2.383 8.026 4.337-2.385 2.385-5.536-3a.033.033 0 00-.003-.002zm8.154 10.963L4.68 19.75v-5.754l5.249 2.845a.35.35 0 00.416-.06l2.303-2.304v9.58zM13 13.229L5.068 8.944 13 4.655l7.932 4.288L13 13.23zm8.507-.133a.103.103 0 00-.006.003l-1.751.95a.35.35 0 10.335.618l1.235-.67v5.755l-7.969 4.307v-9.58l2.304 2.303a.349.349 0 00.416.06l2.777-1.506a.349.349 0 00.142-.476.352.352 0 00-.477-.141l-2.547 1.38-2.384-2.384 8.025-4.339 2.365 2.384-2.465 1.336z" fill="#000" stroke="#000" stroke-width=".6"/></svg>
